X:2
T:Pavan for five viols
P:Cantus
%%measurenb 0
%%scale 0.8
%%squarebreve
C:Thomas Weelkes
M:C|
L:1/4
K:C clef=treble 
G4 G4 | G8 | d8 | d4 c3 d | e4 e2 e2-|e d/c/ B2 c2 B A| 
G2 B2 A4| B4 B4:: c2 e3 f g2- |g f e3 d c2- |c A d3 c c2-|c2 B2 c g g/f/e/d/ |
c3 g g/f/e/d/ c2 | z e e/d/c/B/ A2 z a | a/g/f/e/ d a a/g/f/e/ d>f| e2 d3 ^c/B/ c2 |d4 d4 ::
G4 z G c B | c>d e/f/ g>f e/d/ c B | A4 z A d ^c |d>e f/g/ a>g f/e/ d ^c |
e d2 ^c d d>"\="c B | A G ^F G A B/c/ d>c |[M:6/2]B>c d g>f e d c B>c d c |B4 B8 :|]

